#pragma once
#define ape_logo_width 128
#define ape_logo_height 64
static const uint8_t ape_logo_bits[] PROGMEM = {
    0x00, 0x00, 0x00, 0x00, 0x00, 0x00, 0x00, 0x00, 0x00, 0x00, 0x00, 0x00, 0x00, 0x00, 0x00, 0x00,
    0x00, 0x00, 0x00, 0x00, 0x00, 0x00, 0x00, 0x00, 0x00, 0x00, 0x00, 0x00, 0x00, 0x00, 0x00, 0x00,
    0x00, 0x00, 0x00, 0x78, 0x00, 0x00, 0x00, 0x00, 0x00, 0x00, 0x00, 0x00, 0x00, 0x00, 0x00, 0x00,
    0x00, 0x00, 0x00, 0xFF, 0x03, 0x00, 0x00, 0x00, 0x00, 0x00, 0x00, 0x00, 0x00, 0x00, 0x00, 0x00,
    0x00, 0x00, 0xC0, 0xFF, 0x1F, 0x00, 0x00, 0x00, 0x00, 0x00, 0x00, 0x00, 0x00, 0x00, 0x00, 0x00,
    0x00, 0x00, 0xF0, 0xFF, 0xFF, 0x00, 0x00, 0x00, 0x00, 0x00, 0x00, 0x00, 0x00, 0x00, 0x00, 0x00,
    0x00, 0x00, 0xFC, 0xFF, 0xFF, 0x03, 0x00, 0x00, 0x00, 0x00, 0x00, 0x00, 0x00, 0x00, 0x00, 0x00,
    0x00, 0x00, 0xFE, 0xFF, 0xFF, 0x0F, 0x00, 0x00, 0x00, 0x00, 0x00, 0x00, 0x00, 0x00, 0x00, 0x00,
    0x00, 0x00, 0xFF, 0xFF, 0xFF, 0x1F, 0x00, 0x00, 0x00, 0x00, 0x00, 0x00, 0x00, 0x00, 0x00, 0x00,
    0x00, 0x80, 0xFF, 0xFF, 0xFF, 0x7F, 0x00, 0x00, 0x00, 0x00, 0x00, 0x00, 0x00, 0x00, 0x00, 0x00,
    0x00, 0x80, 0xFF, 0xFF, 0xFF, 0xFF, 0x00, 0x00, 0x00, 0x00, 0x00, 0x00, 0x00, 0x00, 0x00, 0x00,
    0x00, 0xC0, 0xFF, 0xFF, 0xFF, 0xFF, 0x03, 0x00, 0x00, 0x00, 0x00, 0x00, 0x00, 0x00, 0x00, 0x00,
    0x00, 0xE0, 0xFF, 0xFF, 0xFF, 0xFF, 0x07, 0x00, 0x00, 0x00, 0x00, 0x00, 0x00, 0x00, 0x00, 0x00,
    0x00, 0xE0, 0xFF, 0xFE, 0xFF, 0xFF, 0x0F, 0x00, 0x00, 0x00, 0x00, 0x00, 0x00, 0x00, 0x00, 0x00,
    0x00, 0xF0, 0x00, 0xFC, 0xFF, 0xFF, 0x3F, 0x00, 0x00, 0x00, 0x00, 0x00, 0x00, 0x00, 0x00, 0x00,
    0x00, 0x00, 0xC0, 0xF8, 0xFF, 0xFF, 0x7F, 0x00, 0x00, 0x00, 0x00, 0x00, 0x00, 0x00, 0x00, 0x00,
    0x00, 0xE0, 0xFF, 0xF0, 0xFF, 0xFF, 0xFF, 0x01, 0x00, 0x00, 0x00, 0x00, 0x00, 0x00, 0x00, 0x00,
    0x00, 0xF8, 0x7F, 0xF8, 0xFF, 0xFF, 0xFF, 0x01, 0x00, 0x00, 0x00, 0x00, 0x00, 0x00, 0x00, 0x00,
    0x00, 0xF0, 0x1F, 0xFE, 0xFF, 0xFF, 0x00, 0x00, 0x00, 0x00, 0x00, 0x00, 0x00, 0x00, 0x00, 0x00,
    0x00, 0x70, 0x82, 0xFF, 0xFF, 0x1F, 0xC0, 0x7F, 0x00, 0x00, 0x00, 0x00, 0x00, 0x00, 0x00, 0x00,
    0x00, 0x7E, 0xE0, 0xFF, 0xFF, 0x8F, 0xFF, 0xFF, 0x01, 0x00, 0x00, 0x00, 0x00, 0x00, 0x00, 0x00,
    0x00, 0x3F, 0xF8, 0xFF, 0xFF, 0xC7, 0xFF, 0xFF, 0x07, 0x00, 0x00, 0x00, 0x00, 0x00, 0x00, 0x00,
    0x00, 0x00, 0xFC, 0xFF, 0xFF, 0xE3, 0xFF, 0xFF, 0x1F, 0x00, 0x00, 0x00, 0x00, 0x00, 0x00, 0x00,
    0x00, 0x00, 0xFC, 0xFF, 0xFF, 0xE3, 0xFF, 0xFF, 0x7F, 0x00, 0x00, 0x00, 0x00, 0x00, 0x00, 0x00,
    0xC0, 0x07, 0xFC, 0xFF, 0xFF, 0xF1, 0xFF, 0xFF, 0xFF, 0x01, 0x00, 0x00, 0x00, 0x00, 0x00, 0x00,
    0xC0, 0x01, 0xFC, 0xFF, 0xFF, 0xF8, 0xFF, 0xFF, 0xFF, 0x07, 0x00, 0x00, 0x00, 0x00, 0x00, 0x00,
    0xC0, 0x01, 0xF8, 0xFF, 0x7F, 0xFC, 0xFF, 0xFF, 0xFF, 0x1F, 0x00, 0x00, 0x00, 0x00, 0x00, 0x00,
    0xC0, 0x03, 0xF8, 0xFF, 0x7F, 0xFC, 0xFF, 0xFF, 0xFF, 0x1F, 0x00, 0x00, 0x00, 0x00, 0x00, 0x00,
    0x80, 0x03, 0xFE, 0xFF, 0x3F, 0xFE, 0xFF, 0xFF, 0xFF, 0x9F, 0x03, 0x00, 0x00, 0x00, 0x00, 0x00,
    0x00, 0xFF, 0xFF, 0xFF, 0x1F, 0xFF, 0xFF, 0xFF, 0xFF, 0x9F, 0x3F, 0x00, 0x00, 0x00, 0x00, 0x00,
    0x00, 0xFE, 0xFF, 0xFF, 0x8F, 0xFF, 0xFF, 0xFB, 0xFF, 0x8F, 0xFF, 0x01, 0x00, 0x00, 0x00, 0x00,
    0x00, 0xFC, 0xFF, 0xFF, 0x8F, 0xFF, 0xFF, 0xF9, 0xFF, 0xCF, 0xFF, 0x1F, 0x00, 0x00, 0x00, 0x00,
    0x00, 0xC0, 0xFF, 0xFF, 0xC7, 0xFF, 0xFF, 0xF8, 0xFF, 0xCF, 0xFF, 0xFF, 0x00, 0x00, 0x00, 0x00,
    0x00, 0x00, 0xF0, 0xFF, 0xE3, 0xFF, 0xFF, 0xF8, 0xFF, 0xC7, 0xFF, 0xFF, 0x03, 0x00, 0x00, 0x00,
    0x00, 0xF0, 0x03, 0xFF, 0xE3, 0xFF, 0x7F, 0xF8, 0xFF, 0xE7, 0xFF, 0xFF, 0xF3, 0x00, 0x00, 0x00,
    0x00, 0xF8, 0x7F, 0xFC, 0xF1, 0xFF, 0x3F, 0xF8, 0xFF, 0xE7, 0xFF, 0xFF, 0xF3, 0x0F, 0x00, 0x00,
    0x00, 0xF8, 0xFF, 0xF8, 0xF8, 0xFF, 0x1F, 0xF8, 0xFF, 0xE3, 0x3F, 0xFF, 0xF3, 0x7F, 0x00, 0x00,
    0x00, 0xFC, 0xFF, 0xF1, 0xF8, 0xFF, 0x1F, 0xF8, 0xFF, 0xF3, 0x3F, 0xF0, 0xE7, 0xFF, 0x01, 0x00,
    0x00, 0xFC, 0xFF, 0x67, 0xFC, 0xFF, 0xEF, 0xFF, 0xFF, 0xF3, 0x3F, 0xF0, 0xE7, 0xFF, 0x03, 0x00,
    0x00, 0xFE, 0xFF, 0x0F, 0xFC, 0xFF, 0xFF, 0xFF, 0xFF, 0xF1, 0x3F, 0xF0, 0xE7, 0xFF, 0x07, 0x00,
    0x00, 0xFE, 0xFF, 0x1F, 0xFE, 0xFF, 0xFF, 0xFF, 0xFF, 0xF9, 0x1F, 0xF0, 0xE7, 0xFF, 0x0F, 0x00,
    0x00, 0xFF, 0xFF, 0x3F, 0xFE, 0xFF, 0xFF, 0xFF, 0xFF, 0xF8, 0xFF, 0xFF, 0xC7, 0xFF, 0x0F, 0x00,
    0x80, 0xFF, 0xFF, 0x1F, 0xFF, 0xFF, 0xFF, 0xFF, 0xFF, 0xF8, 0xFF, 0xFF, 0xCF, 0x1F, 0x00, 0x00,
    0x80, 0xFF, 0xFF, 0x1F, 0xFF, 0xFF, 0xFF, 0xFF, 0xFF, 0xFC, 0xFF, 0xFF, 0xCF, 0xFF, 0x1F, 0x00,
    0xC0, 0xFF, 0xFF, 0x8F, 0xFF, 0xFF, 0xFF, 0xFF, 0x7F, 0xFC, 0xFF, 0xFF, 0xCF, 0xFF, 0x3F, 0x00,
    0xC0, 0xFF, 0xFF, 0x87, 0xFF, 0xFF, 0xFF, 0xFF, 0x7F, 0xFC, 0xFF, 0xFF, 0xCF, 0xFF, 0x3F, 0x00,
    0xE0, 0xFF, 0xFF, 0xC3, 0xFF, 0xFF, 0x01, 0xFC, 0x7F, 0xFE, 0xFF, 0xFF, 0xC1, 0xFF, 0x7F, 0x00,
    0xE0, 0xFF, 0xFF, 0xC3, 0xFF, 0xFF, 0x01, 0xF8, 0x3F, 0xFE, 0xFF, 0x07, 0xE0, 0xFF, 0x7F, 0x00,
    0xF0, 0xFF, 0xFF, 0xC1, 0xFF, 0xFF, 0x00, 0xF0, 0x3F, 0xFE, 0x1F, 0x00, 0xF8, 0x7F, 0x00, 0x00,
    0xF0, 0xFF, 0xFF, 0xE0, 0xFF, 0xFF, 0x00, 0xE0, 0x3F, 0xFF, 0x1F, 0x00, 0xFE, 0xFF, 0x7F, 0x00,
    0xF8, 0xFF, 0x7F, 0xE0, 0xFF, 0x7F, 0x00, 0xC0, 0x1F, 0xFF, 0x1F, 0x00, 0xFF, 0xFF, 0xFF, 0x00,
    0xF8, 0xFF, 0x7F, 0xF0, 0xFF, 0x7F, 0x00, 0xC0, 0x1F, 0xFF, 0x0F, 0x00, 0xFC, 0xFF, 0xFF, 0x01,
    0xFC, 0xFF, 0x3F, 0xF0, 0xFF, 0x3F, 0x00, 0x80, 0x9F, 0xFF, 0x0F, 0x00, 0xF0, 0xFF, 0xFF, 0x03,
    0xFC, 0xFF, 0x1F, 0xF0, 0xFF, 0x3F, 0x00, 0x00, 0x8F, 0xFF, 0x0F, 0x00, 0xC0, 0xFF, 0xFF, 0x07,
    0xFC, 0xFF, 0x0F, 0xF8, 0xFF, 0x1F, 0x00, 0x00, 0x8E, 0xFF, 0x0F, 0x00, 0x00, 0xFF, 0xFF, 0x07,
    0xFC, 0xFF, 0x07, 0xF8, 0xFF, 0x0F, 0x00, 0x00, 0xC0, 0xFF, 0x0F, 0x00, 0x00, 0xFC, 0xFF, 0x0F,
    0xF8, 0xFF, 0x07, 0xF8, 0xFF, 0x0F, 0x00, 0x00, 0xE0, 0xFF, 0x0F, 0x00, 0x00, 0xF0, 0xFF, 0x1F,
    0xF8, 0xFF, 0x07, 0xFC, 0xFF, 0x1F, 0x00, 0x00, 0xF8, 0xFF, 0x07, 0x00, 0x00, 0xC0, 0xFF, 0x1F,
    0xF8, 0xFF, 0x0F, 0xFC, 0xFF, 0x3F, 0x00, 0x00, 0xFC, 0xFF, 0x07, 0x00, 0x00, 0xE0, 0xFF, 0x3F,
    0xF8, 0xFF, 0x1F, 0xFC, 0xFF, 0x7F, 0x00, 0x00, 0xFF, 0xFF, 0x07, 0x00, 0x00, 0xF0, 0xFF, 0x3F,
    0xF0, 0xFF, 0x3F, 0xFE, 0xFF, 0xFF, 0x00, 0xC0, 0xFF, 0xFF, 0x03, 0x00, 0x00, 0xFC, 0xFF, 0x3F,
    0xF0, 0xFF, 0x3F, 0xFE, 0xFF, 0xFF, 0x01, 0xE0, 0xFF, 0xFF, 0x03, 0x00, 0x00, 0xFE, 0xFF, 0x3F,
    0x00, 0x00, 0x00, 0x00, 0x00, 0x00, 0x00, 0x00, 0x00, 0x00, 0x00, 0x00, 0x00, 0x00, 0x00, 0x00,
    0x00, 0x00, 0x00, 0x00, 0x00, 0x00, 0x00, 0x00, 0x00, 0x00, 0x00, 0x00, 0x00, 0x00, 0x00, 0x00,
};
